X: 35546
T: Russian Retreat, The
R: hornpipe
M: 4/4
K: Dmajor
A|:AFDF A2 Bc|dedB A2 dB|AFDF A2 dB|AGFG E2 A2|
AFDF A2 Bc|dedB A2 Bc|d2 d2 ef (3gfe|1 d2 dc d2 dB:|2 d2 dc defg||
a2 af gf e2|f2 d2 cA A2|Bddc d2 ef|g2 fg e2 fg|
a2 af gf e2|f2 d2 cA A2|Bddc d2 ef|1 (3gfe dc d2 f2:|2 (3gfe dc d4||

